build/images/icons/sort-icon-1.svg

<svg width="20" height="20" viewBox="0 0 20 20" fill="none" xmlns="http://www.w3.org/2000/svg">
<g clip-path="url(#clip0_47_2393)">
<path d="M14.2542 5.19363C14.118 4.96856 13.8487 4.8616 13.5953 4.93225C13.342 5.0029 13.1667 5.23376 13.1667 5.49667C13.1667 6.21185 12.5848 6.79352 11.8698 6.79352C11.1548 6.79352 10.573 6.21185 10.573 5.49667V0.585934C10.573 0.348965 10.4301 0.135341 10.2112 0.0447042C9.99222 -0.0460857 9.7403 0.00396317 9.57275 0.171657C9.50684 0.237423 7.94449 1.80908 6.36154 4.1835C5.42801 5.58365 4.68307 6.9725 4.14749 8.31146C3.46909 10.0078 3.125 11.6316 3.125 13.1381C3.125 16.9217 6.20331 20 9.98703 20C13.7706 20 16.8489 16.9217 16.8489 13.1381C16.8491 10.7161 15.976 8.04321 14.2542 5.19363ZM13.8968 12.9857C13.8968 13.3093 13.6345 13.5716 13.3109 13.5716C12.9874 13.5716 12.7249 13.3093 12.7249 12.9857V11.89L9.80743 14.8076C9.69742 14.9175 9.54849 14.9791 9.39301 14.9791C9.23767 14.9791 9.08859 14.9175 8.97873 14.8076L7.61795 13.4467L6.7009 14.3637C6.47202 14.5926 6.10107 14.5926 5.87219 14.3637C5.64331 14.1348 5.64331 13.7639 5.87219 13.535L7.20367 12.2037C7.43256 11.9749 7.8035 11.9749 8.03238 12.2038L9.39301 13.5646L11.8964 11.0613H10.8005C10.4768 11.0613 10.2145 10.799 10.2145 10.4753C10.2145 10.1517 10.4768 9.88937 10.8005 9.88937H13.311C13.6345 9.88937 13.8969 10.1518 13.8969 10.4753V12.9857H13.8968Z" fill="#D9D9D9"/>
</g>
<defs>
<clipPath id="clip0_47_2393">
<rect width="20" height="20" fill="white"/>
</clipPath>
</defs>
</svg>

<svg width="20" height="20" fill="none" xmlns="http://www.w3.org/2000/svg"><g clip-path="url(#a)"><path d="M14.254 5.194a.586.586 0 0 0-1.087.303c0 .715-.582 1.297-1.297 1.297a1.298 1.298 0 0 1-1.297-1.297V.586a.586.586 0 0 0-1-.414c-.066.065-1.629 1.637-3.211 4.012-.934 1.4-1.679 2.788-2.215 4.127-.678 1.697-1.022 3.32-1.022 4.827A6.87 6.87 0 0 0 9.987 20a6.87 6.87 0 0 0 6.862-6.862c0-2.422-.873-5.095-2.595-7.944Zm-.357 7.792a.586.586 0 1 1-1.172 0V11.89l-2.918 2.918a.586.586 0 0 1-.828 0l-1.361-1.361-.917.917a.586.586 0 1 1-.829-.829l1.332-1.331a.586.586 0 0 1 .828 0l1.361 1.36 2.503-2.503H10.8a.586.586 0 1 1 0-1.172h2.511c.323 0 .586.263.586.586v2.51Z" fill="#D9D9D9"/></g><defs><clipPath id="a"><path fill="#fff" d="M0 0h20v20H0z"/></clipPath></defs></svg>
